dist/img/svg/header-quality.svg

<svg width="50" height="62" viewBox="0 0 50 62" fill="none" xmlns="http://www.w3.org/2000/svg">
<path d="M15.1897 20.4314L15.1841 20.4342L15.1758 20.4397L15.1897 20.4314ZM42.8398 19.9148C42.6466 19.7294 42.4322 19.5671 42.2009 19.4313C41.8736 19.2397 41.5102 19.1168 41.1332 19.0703C40.7562 19.0239 40.3737 19.0548 40.0092 19.1612C39.6447 19.2677 39.306 19.4473 39.0141 19.6891C38.7222 19.9308 38.4833 20.2295 38.312 20.5668C37.3553 22.4424 36.0356 24.1117 34.4287 25.4788C34.6751 24.1017 34.7996 22.7059 34.8009 21.3072C34.8062 17.0531 33.6779 12.8735 31.531 9.19407C29.384 5.51464 26.2951 2.46672 22.5786 0.360657C22.1691 0.129225 21.7071 0.00517135 21.2361 0.000158219C20.7651 -0.00485491 20.3005 0.109337 19.8861 0.331999C19.4716 0.554661 19.121 0.87848 18.867 1.27301C18.613 1.66755 18.464 2.11984 18.4342 2.58736C18.2786 5.20665 17.5901 7.76727 16.4102 10.1141C15.2304 12.4609 13.5838 14.5451 11.5702 16.2405L10.9313 16.7571C8.8247 18.1667 6.96008 19.9046 5.40909 21.9039C2.99873 24.9238 1.32904 28.4608 0.532443 32.2342C-0.264153 36.0076 -0.16574 39.9138 0.819879 43.6428C1.8055 47.3718 3.65121 50.8212 6.21061 53.7172C8.77002 56.6133 11.9727 58.8764 15.5647 60.3271C15.9864 60.4978 16.4439 60.5628 16.8968 60.5163C17.3497 60.4699 17.7842 60.3134 18.162 60.0607C18.5399 59.808 18.8494 59.4669 19.0635 59.0672C19.2776 58.6675 19.3896 58.2217 19.3897 57.7688C19.3874 57.4762 19.3406 57.1856 19.2508 56.9069C18.6293 54.5836 18.4503 52.1652 18.723 49.7764C21.3521 54.7066 25.5718 58.6143 30.7037 60.8713C31.3298 61.1497 32.0375 61.1871 32.6898 60.9763C36.7439 59.6747 40.3961 57.3637 43.2993 54.263C46.2026 51.1623 48.2605 47.3749 49.2775 43.2605C50.2946 39.1461 50.237 34.8413 49.1102 30.7553C47.9835 26.6692 45.825 22.9376 42.8398 19.9148ZM31.9926 55.3625C29.5711 54.1423 27.435 52.4288 25.7232 50.3336C24.0113 48.2384 22.7619 45.8083 22.0564 43.2013C21.8407 42.3234 21.6738 41.4343 21.5564 40.5381C21.4774 39.9674 21.2209 39.4356 20.823 39.017C20.425 38.5984 19.9054 38.314 19.3369 38.2036C19.1621 38.1699 18.9844 38.1532 18.8064 38.1539C18.3183 38.1534 17.8387 38.2809 17.4159 38.5234C16.9932 38.7659 16.6421 39.1149 16.398 39.5352C14.0937 43.4893 12.9352 48.0007 13.0508 52.5695C11.0234 51.0022 9.32904 49.0504 8.06581 46.827C6.80258 44.6036 5.99565 42.153 5.69179 39.6171C5.38793 37.0813 5.59319 34.5107 6.29567 32.0543C6.99815 29.598 8.18387 27.3047 9.78411 25.3075C10.9992 23.7379 12.4649 22.3772 14.123 21.2796C14.1956 21.2333 14.2652 21.1825 14.3314 21.1276C14.3314 21.1276 15.1536 20.4508 15.1814 20.4369C19.1403 17.1081 21.9563 12.6337 23.237 7.63752C26.2632 10.4205 28.2808 14.1194 28.9764 18.1599C29.6721 22.2003 29.0069 26.3561 27.0842 29.9819C26.8297 30.4659 26.7252 31.014 26.7838 31.557C26.8425 32.1 27.0616 32.6136 27.4135 33.0328C27.7655 33.452 28.2345 33.7581 28.7612 33.9123C29.288 34.0666 29.8489 34.0621 30.3731 33.8994C34.6279 32.5723 38.3719 29.9807 41.1009 26.4734C42.7418 28.8831 43.8146 31.63 44.2395 34.5094C44.6643 37.3889 44.4303 40.3265 43.5547 43.1035C42.6792 45.8804 41.1848 48.425 39.1828 50.5477C37.1809 52.6703 34.7231 54.3161 31.9926 55.3625Z" fill="white"/>
</svg>

<svg width="50" height="62" fill="none" xmlns="http://www.w3.org/2000/svg"><path d="M15.19 20.431l-.006.003-.008.006.014-.009zm27.65-.516a3.433 3.433 0 00-.64-.484 2.79 2.79 0 00-3.888 1.136 15.988 15.988 0 01-3.883 4.912A23.974 23.974 0 0031.53 9.194 24.142 24.142 0 0022.579.361a2.79 2.79 0 00-3.712.912 2.751 2.751 0 00-.433 1.314 19.304 19.304 0 01-2.024 7.527 19.403 19.403 0 01-4.84 6.127l-.639.516a23.596 23.596 0 00-5.522 5.147 24.758 24.758 0 00-4.877 10.33A24.686 24.686 0 00.82 43.643a24.774 24.774 0 005.39 10.074 24.951 24.951 0 009.355 6.61 2.791 2.791 0 002.597-.266 2.767 2.767 0 001.228-2.292 2.884 2.884 0 00-.14-.862 19.174 19.174 0 01-.527-7.13 24.958 24.958 0 0011.98 11.094 2.783 2.783 0 001.987.105 25.003 25.003 0 0010.61-6.713 24.808 24.808 0 005.978-11.002 24.72 24.72 0 00-.168-12.506 24.817 24.817 0 00-6.27-10.84zM31.993 55.362a19.323 19.323 0 01-6.27-5.028 19.2 19.2 0 01-3.667-7.133 24.497 24.497 0 01-.5-2.663 2.757 2.757 0 00-.733-1.521 2.782 2.782 0 00-3.407-.494 2.772 2.772 0 00-1.018 1.012 24.646 24.646 0 00-3.347 13.035 19.327 19.327 0 01-4.985-5.743 19.196 19.196 0 01-1.77-14.773 19.26 19.26 0 013.488-6.746 18.17 18.17 0 014.339-4.028c.073-.047.142-.098.208-.152 0 0 .823-.677.85-.691a24.758 24.758 0 008.056-12.8 18.58 18.58 0 015.74 10.523 18.52 18.52 0 01-1.893 11.822 2.75 2.75 0 00.33 3.05 2.792 2.792 0 002.96.867A21.823 21.823 0 0041.1 26.473a19.238 19.238 0 012.454 16.63 19.315 19.315 0 01-4.372 7.445 19.45 19.45 0 01-7.19 4.814z" fill="#fff"/></svg>
